Sources/FrostedUI/Resources/Icons.xcassets/bold20.imageset/bold-20.svg

<svg width="20" height="20" viewBox="0 0 20 20" fill="none" xmlns="http://www.w3.org/2000/svg" data-fui-icon="true">
  <path
    d="M11.043 2.375C13.298 2.375 15.1268 4.20299 15.127 6.45801V6.66699C15.1269 7.87735 14.5994 8.96422 13.7627 9.71191C15.0682 10.3932 15.9598 11.7585 15.96 13.333V13.542C15.9598 15.7969 14.1319 17.6249 11.877 17.625H5.61816C4.74397 17.6248 4.03533 16.9162 4.03516 16.042V3.95801C4.03533 3.08382 4.74396 2.37518 5.61816 2.375H11.043ZM5.53516 16.042C5.53533 16.0878 5.57239 16.1248 5.61816 16.125H11.877C13.3035 16.1249 14.4598 14.9685 14.46 13.542V13.333C14.4598 11.9065 13.3035 10.7501 11.877 10.75H5.53516V16.042ZM5.61816 3.875C5.5724 3.87517 5.53533 3.91224 5.53516 3.95801V9.25H11.043C12.4696 9.25 13.6268 8.09355 13.627 6.66699V6.45801C13.6268 5.03143 12.4696 3.875 11.043 3.875H5.61816Z"
    fill="currentColor"
  />
</svg>

<svg xmlns="http://www.w3.org/2000/svg" width="20" height="20" fill="none" data-fui-icon="true" viewBox="0 0 20 20"><path fill="currentColor" d="M11.043 2.375a4.084 4.084 0 0 1 4.084 4.083v.209c0 1.21-.528 2.297-1.364 3.045a4.08 4.08 0 0 1 2.197 3.621v.209a4.083 4.083 0 0 1-4.083 4.083H5.618a1.583 1.583 0 0 1-1.583-1.583V3.958c0-.874.709-1.583 1.583-1.583zM5.535 16.042c0 .046.037.083.083.083h6.259a2.583 2.583 0 0 0 2.583-2.583v-.209a2.583 2.583 0 0 0-2.583-2.583H5.535zm.083-12.167a.083.083 0 0 0-.083.083V9.25h5.508a2.584 2.584 0 0 0 2.584-2.583v-.209a2.584 2.584 0 0 0-2.584-2.583z"/></svg>
